X:1
T:Is it night? - Webbe
T:#
%%score [ 1 2 3 ]
L:1/8
Q:1/4=132
M:2/2
K:G
V:1 treble nm="Alto" snm="A"
V:2 treble-8 nm="Tenor" snm="T"
V:3 bass nm="Bass" snm="B"
V:1
"^allegro""^Is it night?""^Samuel Webbe\n(1740-1816)" z4 | z8 | z2 G2 F2 E2 | D2 F2 G2 A2 | %4
w: ||Would dark- ness|fright, would dark- ness|
 !wedge!D2 !wedge!G2 z4 | z4 G2 G,2 |[M:2/2] (D2 G2) (E2 A2) | G4 TF4 | G8- | G4 E2 E2 | %10
w: fright us?|Let us|drive * dull *|thoughts a-|way,|* let us|
 (D2 G2) (G2 E2) | (D2 C2) (B,2 A,2) | G,4 z4 | z8 | z8 | z4 D2 D2 | (GFGA G2) F2 | E4 D4 | %18
w: drive * dull *|thoughts * a\- *|way;|||Let gay|mirth * * * * and|songs u-|
 ^C4 D4 | z8 | F2 (EF) G2 E2 | (^C2 A,2 D4- | D4) ^C4 | D8 | z8 | z8 | z8 | z8 | G2 D2 E2 C2 | %29
w: nite us,||Till we * see the|ri\- * *|* sing|day.|||||Let gay mirth and|
 G2 D2 E2 C2 | F2 C2 D2 B,2 | C2 A,2 B,2 (CD) | E6 (FG) | (F4- FGEF | D4 G4- | G4 F4 | F2 E2 D4- | %37
w: songs u- nite us,|Till we see the|ri- sing day, the *|ri- sing *|day, * * * *|* till|* we|see the ri\-|
 D4 ^C4 | D8- | D4 :|[M:3/4] z2 G4 | z2 G4 | z2 E4 | D6 | ED) (CD) (EC) | (DC) (B,C) (DB,) | %46
w: * sing|day.||Fly,|fly,|fly,|care,|fly, * to * the *|winds * Thus * I *|
 (CD) E2 E2 | D6- | D6 | D6 | E4 z2 | F4 D2 | ^C2 C2 C2 | D4 E2 | F4 E2 | G2 F2 E2 | D2 G2 F2 | %57
w: blow * thee a-|way,|||fly,|fly, I|blow thee a-|way, a-|way; I'll|drown thee in|wine, If thou|
 F2 E2 D2 | ^C4 E2 | F2 F2 F2 | G2 F2 E2 | F6 | E4 E2 | D4!p! D2 | D2 ^C2 =C2 | B,2!f! G2 F2 | %66
w: da- rest to|stay, I'll|drown thee in|wine, If thou|da-|rest to|stay, I'll|drown thee in|wine, If thou|
 E2 D2 ^C2 | D4 z2 | z2 z2 D2 | B,2 B,2 B,2 | (E^F) (ED) (CB,) | A,2 A,2 (B,C) | B,6- | %73
w: da- rest to|stay,|I'll|drown thee in|wine, * If * thou *|da- rest to *|stay,|
 B,2 B,2 D2 | (EF) G2 (AG) | F4 D2 | D3 C B,2 | (CD) E2 F2 | G2 G,2 G2 | E4 D2 | E2 E2 (AG) | %81
w: * If thou|da\- * rest to *|stay. Fly,|care, to the|winds * Thus I|blow thee a-|way, I'll|drown thee in *|
 F2 F2 G2 | A2 G2 F2 | G4 F2 | G2 D2 G2 |[Q:1/4=130] F2[Q:1/4=128] G2[Q:1/4=126] G2 | %86
w: wine, If thou|da- rest to|stay, I'll|drown thee in|wine, If thou|
[Q:1/4=121] G6 |[Q:1/4=116] F4[Q:1/4=113] F2 |[Q:1/4=112] G6 |] %89
w: da-|rest to|stay.|
V:2
 B2 B2 | !wedge!A4 c2 c2 | !wedge!B4 z4 | z2 d2 d2 c2 | !wedge!B2 !wedge!G2 z4 | B6 B2 | %6
w: Is it|night? is it|night?|Would dark- ness|fright us?|Let us|
[M:2/2][K:treble-8] (BcBA G2) c2 | (B2 A4) d2 | B8- | B4 c2 G2 | d4 c4 | (B2 A2) (G2 F2) | G4 z4 | %13
w: drive * * * * dull|thoughts * a-|way,|* let us|drive dull|thoughts * a\- *|way;|
 z4 G2 G2 | (cBcd c2) B2 | (A2 d4 c2 | BABc B2 A2 | G4) F4 | E4 D2 d2 | d4 ^c4 | z8 | A4 A4 | %22
w: Let gay|mirth * * * * and|songs * *||* u-|nite us, u-|nite us,||Till we|
 B2 B2 A2 A2 | (G2 F6) | z8 | z8 | d2 A2 B2 G2 | d2 A2 B2 G2 | z4 c4 | B4 c4- | c4 G2 G2 | F4 G4 | %32
w: see the ri- sing|day. *|||Let gay mirth and|songs u- nite us,|u-|nite us,|* Till we|see the|
 (G2 e2) e4 | (A4- ABGA | F2 dc B2 AG | A8) | G4 F4 | E2 (FG) A2 G2 | (F4- FGEF | D4) :| %40
w: ri\- * sing|day, * * * *|||till we|see the * ri- sing|day. * * * *||
[M:3/4][K:treble-8] z2 z2 B2 | G4 B2 | z2 c4 | B6 | z2 G2 G2 | G2 G2 G2 | E2 c2 c2 | B4 d2 | %48
w: Fly,|fly, fly,|fly,|care,|to the|winds Thus I|blow thee a-|way, fly,|
 B2 G2 d2 | B2 G2 B2 | c2 (cd) (cB) | A6- | A4 A2 | F2 d2 ^c2 | d6- | d6 | d2 ^c2 d2 | %57
w: care, to the|winds thus I|blow thee * a\- *|way,|* I|blow thee a-|way;||* If thou|
 A2 A2 (A^G) | A4 ^c2 | d2 A2 d2 | ^c2 d2 d2 | d6 | ^c4 c2 | d4!p! D2 | E2 E2 F2 | G2!f! _B2 A2 | %66
w: da- rest to *|stay, I'll|drown thee in|wine, If thou|da-|rest to|stay, I'll|drown thee in|wine, If thou|
 G2 F2 E2 | F4 A2 | (dedcBA | G2) G2 G2 | (cdcBAG | F2) F2 (GA) | B2 G2 d2 | B2 G2 B2 | %74
w: da- rest to|stay, I'll|drown * * * * *|* thee, I'll|drown * * * * *|* thee, I'll *|drown thee in|wine, If thou|
 (cd) (ed) (cB) | A4 A2 | B3 c d2 | c2 c2 c2 | B2 d2 d2 | c4 B2 | c2 (cB) (c^c) | d2 d2 d2 | %82
w: da\- * rest * to *|stay. Fly,|care, to the|winds Thus I|blow thee a-|way, I'll|drown thee * in *|wine, If thou|
 c2 B2 A2 | B4 d2 | B2 B2 B2 | c2 B2 e2 | d6- | d2 A2 d2 | B6 |] %89
w: da- rest to|stay, I'll|drown thee in|wine, If thou|da\-|* rest to|stay.|
V:3
 G,2 G,2 | !wedge!F,4 E,2 F,2 | !wedge!G,4 z4 | z2 D,2 E,2 F,2 | !wedge!G,2 !wedge!G,,2 z4 | %5
w: Is it|night? is it|night?|Would dark- ness|fright us?|
 G,4 E,4 |[M:2/2] B,,4 C,4 | D,6 D,2 | E,8- | E,4 C,2 C,2 | B,,4 C,4 | D,6 D,2 | G,,4 D,2 D,2 | %13
w: Let us|drive dull|thoughts a-|way,|* let us|drive dull|thoughts a-|way; Let gay|
 (G,F,G,A, G,2) F,2 | E,4 E,4 | F,4 D,4 | z2 D,2 G,2 D,2 | z2 ^C,2 D,2 A,,2 | %18
w: mirth * * * * and|songs u-|nite us,|u- nite us,|let mirth u-|
 A,2 G,2 (F,E,) (F,D,) | E,2 (F,G,) A,2 (B,^C) | D4 G,4- | G,4 F,4 | (G,F,) (G,E,) A,2 A,,2 | D,8 | %24
w: nite us, Till * we *|see the * ri- sing *|day, till|* we|see * the * ri- sing|day.|
 A,2 E,2 F,2 D,2 | A,2 E,2 F,2 D,2 | z4 G,4 | F,4 G,4 | G,2 G,2 G,2 G,2 | G,2 G,2 C,2 E,2 | %30
w: Let gay mirth and|songs u- nite us,|u-|nite us,|let gay mirth and|songs u- nite us,|
 C,4 B,,4 | A,,4 G,,4 | C,4 ^C,4 | D,8- | D,8 | D,8 | D,8 | D,8 | D,8 | D,4 :|[M:3/4] G,4 z2 | %41
w: Till we|see the|ri- sing|day.|||||||Fly,|
 E,4 z2 | (C,B,, C,D, E,F, | G,4) G,,2 | C,2 E,2 C,2 | B,,2 G,,2 B,,2 | (C,B,,) (C,D,) (E,F,) | %47
w: fly,|fly, * * * * *|* fly,|care, to the|winds Thus I|blow * thee * a\- *|
 G,4 F,2 | G,4 F,F, | G,6 | z2 C,2 C,2 | (D,^C,D,E,F,G, | A,B,A,G,F,E, | D,2) F,2 A,2 | D4 ^C2 | %55
w: way, fly,|care, fly a-|way,|thus I|blow * * * * *||* thee a-|way; I'll|
 B,2 A,2 G,2 | F,2 E,2 D,2 | D,2 ^C,2 B,,2 | A,,4 A,,2 | D,2 D,2 D,2 | E,2 F,2 G,2 | A,6 | %62
w: drown thee in|wine if thou|da- rest to|stay, I'll|drown thee in|wine, If thou|da-|
 A,,4 A,,2 |!>(! D,6- | D,6!>)! | D,2!f! D,2 D,2 | G,,2 A,,2 A,,2 | D,4 z2 | z2 z2 D,2 | %69
w: rest to|stay,||* If thou|da- rest to|stay,|I'll|
 (G,A,G,=F,E,D, | C,2) C,2 C,2 | (D,E,D,C,B,,A,, | G,,2 G,,2 G,,2 | G,2 G,2 G,2 | C,2 C,2 C,2 | %75
w: drown * * * * *|* thee, I'll|drown * * * * *|* thee in|wine, If thou|da- rest to|
 D,4 F,2 | G,2 G,,2 G,2 | A,2 A,,2 A,2 | B,2 B,,2 B,2 | C4 G,2 | CB,) (A,G,) (F,E,) | %81
w: stay. Fly,|care, to the|winds Thus I|blow thee a-|way, I'll|drown * thee * in *|
 D,2 C,2 B,,2 | C,2 D,2 D,2 | G,4 D,2 | G,2 G,2 G,2 | A,2 B,2 C2 | D6 | D,4 D,2 | G,6 |] %89
w: wine, If thou|da- rest to|stay, I'll|drown thee in|wine, If thou|da-|rest to|stay.|

